icon/fa/earth-europe.svg

<svg xmlns="http://www.w3.org/2000/svg" viewBox="0 0 512 512"><!--! Font Awesome Free 6.1.2 by @fontawesome - https://fontawesome.com License - https://fontawesome.com/license/free (Icons: CC BY 4.0, Fonts: SIL OFL 1.1, Code: MIT License) Copyright 2022 Fonticons, Inc.--><path d="M512 256c0 141.4-114.6 256-256 256S0 397.4 0 256 114.6 0 256 0s256 114.6 256 256zM266.3 48.25 232.5 73.6c-5.3 4.03-8.5 10.35-8.5 17.07v9.05c0 6.78 5.5 12.28 12.3 12.28 2.4 0 4.8-.7 6.8-2.1l41.8-27.84c2-1.34 4.4-2.06 6.8-2.06h1c6.2 0 11.3 5.07 11.3 11.31 0 3-1.2 5.88-3.3 8l-19.9 19.89c-5.8 4.9-12.9 10.2-20.6 12.7l-26.6 8.9c-5.7 1.9-9.6 7.3-9.6 13.4 0 3.7-1.5 7.3-4.1 9.9l-18 18c-6.3 6.3-9.9 15-9.9 24v4.2c0 16.4 13.6 29.7 29.9 29.7 11 0 21.2-6.2 26.1-16l4-8.1c2.5-4.8 7.4-7.9 12.8-7.9 4.6 0 8.8 2.1 11.5 5.7l16.3 21.8c2.1 2.8 5.5 4.5 9.1 4.5 8.4 0 13.9-8.9 10.1-16.4l-1.1-2.3c-3.6-7 0-15.5 7.4-18l21.2-7.1c7.6-2.5 12.7-9.6 12.7-17.6 0-10.3 8.3-18.6 18.6-18.6H400c8.8 0 16 7.2 16 16s-7.2 16-16 16h-20.7c-7.2 0-14.2 2.9-19.3 8l-4.7 4.7c-2.1 2.1-3.3 5-3.3 8 0 6.2 5.1 11.3 11.3 11.3h11.3c6 0 11.8 2.4 16 6.6l6.6 6.6c.9.9 2.8 4.2 2.8 6.8 0 2.6-1.9 5-2.8 6.8l-7.5 7.5c-3.7 2.8-5.7 8.6-5.7 13.7s2 10 5.7 13.7L408 304c10.2 10.2 24.1 16 38.6 16h6.5c7.4-20.2 10.9-41.7 10.9-64 0-111.4-87.6-202.36-197.7-207.75zM438.4 356.1c-3.7-2.6-8.2-4.1-13-4.1-6 0-11.8-2.4-16-6.6l-14.3-14.3c-6.8-6.8-17.2-11.1-28-11.1-9.7 0-19.2-3.5-26.6-9.8l-27.4-22.8c-10.7-9.9-25.5-16.3-40.8-16.3h-20.9c-12.7 0-25 4.6-35.5 11.6L188.5 301c-17.8 11.9-28.5 31.9-28.5 53.3v3.2c0 17 6.7 33.2 18.7 45.2l16 16c8.5 8.5 20 13.3 32 13.3H248c13.3 0 24 10.7 24 24 0 2.5.4 5 1.1 7.3 71.4-5.8 132.5-47.6 165.3-107.2zM164.7 100.7l-32 32c-6.3 6.2-6.3 16.4 0 22.6 6.2 6.3 16.4 6.3 22.6 0l32-32c6.3-6.2 6.3-16.4 0-22.6-6.2-6.26-16.4-6.26-22.6 0z"/></svg>

<svg xmlns="http://www.w3.org/2000/svg" viewBox="0 0 512 512" height="1em" width="1em">
<!--! Font Awesome Free 6.1.2 by @fontawesome - https://fontawesome.com License - https://fontawesome.com/license/free (Icons: CC BY 4.0, Fonts: SIL OFL 1.1, Code: MIT License) Copyright 2022 Fonticons, Inc.-->
  <path d="M512 256C512 397.4 397.4 512 256 512C114.6 512 0 397.4 0 256C0 114.6 114.6 0 256 0C397.4 0 512 114.6 512 256zM266.3 48.25L232.5 73.6C227.2 77.63 224 83.95 224 90.67V99.72C224 106.5 229.5 112 236.3 112C238.7 112 241.1 111.3 243.1 109.9L284.9 82.06C286.9 80.72 289.3 80 291.7 80H292.7C298.9 80 304 85.07 304 91.31C304 94.31 302.8 97.19 300.7 99.31L280.8 119.2C275 124.1 267.9 129.4 260.2 131.9L233.6 140.8C227.9 142.7 224 148.1 224 154.2C224 157.9 222.5 161.5 219.9 164.1L201.9 182.1C195.6 188.4 192 197.1 192 206.1V210.3C192 226.7 205.6 240 221.9 240C232.9 240 243.1 233.8 248 224L252 215.9C254.5 211.1 259.4 208 264.8 208C269.4 208 273.6 210.1 276.3 213.7L292.6 235.5C294.7 238.3 298.1 240 301.7 240C310.1 240 315.6 231.1 311.8 223.6L310.7 221.3C307.1 214.3 310.7 205.8 318.1 203.3L339.3 196.2C346.9 193.7 352 186.6 352 178.6C352 168.3 360.3 160 370.6 160H400C408.8 160 416 167.2 416 176C416 184.8 408.8 192 400 192H379.3C372.1 192 365.1 194.9 360 200L355.3 204.7C353.2 206.8 352 209.7 352 212.7C352 218.9 357.1 224 363.3 224H374.6C380.6 224 386.4 226.4 390.6 230.6L397.2 237.2C398.1 238.1 400 241.4 400 244C400 246.6 398.1 249 397.2 250.8L389.7 258.3C386 261.1 384 266.9 384 272C384 277.1 386 282 389.7 285.7L408 304C418.2 314.2 432.1 320 446.6 320H453.1C460.5 299.8 464 278.3 464 256C464 144.6 376.4 53.64 266.3 48.25V48.25zM438.4 356.1C434.7 353.5 430.2 352 425.4 352C419.4 352 413.6 349.6 409.4 345.4L395.1 331.1C388.3 324.3 377.9 320 367.1 320C357.4 320 347.9 316.5 340.5 310.2L313.1 287.4C302.4 277.5 287.6 271.1 272.3 271.1H251.4C238.7 271.1 226.4 275.7 215.9 282.7L188.5 301C170.7 312.9 160 332.9 160 354.3V357.5C160 374.5 166.7 390.7 178.7 402.7L194.7 418.7C203.2 427.2 214.7 432 226.7 432H248C261.3 432 272 442.7 272 456C272 458.5 272.4 461 273.1 463.3C344.5 457.5 405.6 415.7 438.4 356.1L438.4 356.1zM164.7 100.7L132.7 132.7C126.4 138.9 126.4 149.1 132.7 155.3C138.9 161.6 149.1 161.6 155.3 155.3L187.3 123.3C193.6 117.1 193.6 106.9 187.3 100.7C181.1 94.44 170.9 94.44 164.7 100.7V100.7z"/>
</svg>
